build/svg/cmd/lc_halfsphere.svg

<?xml version="1.0" encoding="UTF-8" standalone="no"?>
<svg
   xmlns:dc="http://purl.org/dc/elements/1.1/"
   xmlns:cc="http://creativecommons.org/ns#"
   xmlns:rdf="http://www.w3.org/1999/02/22-rdf-syntax-ns#"
   xmlns:svg="http://www.w3.org/2000/svg"
   xmlns="http://www.w3.org/2000/svg"
   xmlns:sodipodi="http://sodipodi.sourceforge.net/DTD/sodipodi-0.dtd"
   xmlns:inkscape="http://www.inkscape.org/namespaces/inkscape"
   viewBox="0 0 24 24"
   version="1.1"
   id="svg15"
   sodipodi:docname="lc_halfsphere.svg"
   inkscape:export-filename="/home/jupiter007/Libreoffice yaru theme fullcolor/build/cmd/lc_halfsphere.png"
   inkscape:export-xdpi="96"
   inkscape:export-ydpi="96"
   inkscape:version="0.92.5 (2060ec1f9f, 2020-04-08)">
  <metadata
     id="metadata19">
    <rdf:RDF>
      <cc:Work
         rdf:about="">
        <dc:format>image/svg+xml</dc:format>
        <dc:type
           rdf:resource="http://purl.org/dc/dcmitype/StillImage" />
      </cc:Work>
    </rdf:RDF>
  </metadata>
  <sodipodi:namedview
     pagecolor="#ffffff"
     bordercolor="#666666"
     borderopacity="1"
     objecttolerance="10"
     gridtolerance="10"
     guidetolerance="10"
     inkscape:pageopacity="0"
     inkscape:pageshadow="2"
     inkscape:window-width="1920"
     inkscape:window-height="1011"
     id="namedview17"
     showgrid="false"
     inkscape:zoom="19.666667"
     inkscape:cx="6.3752183"
     inkscape:cy="13.77177"
     inkscape:window-x="0"
     inkscape:window-y="32"
     inkscape:window-maximized="1"
     inkscape:current-layer="svg15" />
  <defs
     id="defs7">
    <linearGradient
       x2="15"
       x1="3"
       gradientUnits="userSpaceOnUse"
       id="0"
       gradientTransform="translate(1,-1029.3622)">
      <stop
         stop-color="#b3b3b3"
         id="stop2" />
      <stop
         offset="1"
         stop-color="#232629"
         id="stop4" />
    </linearGradient>
  </defs>
  <path
     style="color:#000000;fill:#000000;fill-rule:evenodd;fill-opacity:1;stroke:#000000;opacity:0.6;stroke-width:2;stroke-miterlimit:4;stroke-dasharray:none;stroke-linejoin:round"
     d="M 12.234375 6.0019531 A 8 4 0 0 0 4 10 A 8 4 0 0 0 4.2324219 10.957031 A 8 4 0 0 0 4.4628906 11.339844 A 8 4 0 0 0 4.7675781 11.708984 A 8 4 0 0 0 4.9746094 11.904297 C 4.9040834 11.839656 4.8310492 11.775715 4.7675781 11.708984 C 4.6535301 11.58908 4.5530281 11.465929 4.4628906 11.339844 C 4.373482 11.214778 4.2968791 11.087469 4.2324219 10.957031 C 4.1436321 10.777354 4.0694911 10.594524 4.03125 10.40625 C 4.245817 14.63285 7.719997 18 12 18 C 16.280003 18 19.754183 14.63285 19.96875 10.40625 C 19.886342 10.811972 19.676333 11.197751 19.369141 11.558594 C 19.278652 11.664886 19.176266 11.767782 19.068359 11.869141 A 8 4 0 0 0 19.369141 11.558594 A 8 4 0 0 0 20 10 A 8 4 0 0 0 12.234375 6.0019531 z M 18.445312 12.361328 C 18.384264 12.402784 18.32389 12.444157 18.259766 12.484375 A 8 4 0 0 0 18.445312 12.361328 z M 5.609375 12.40625 A 8 4 0 0 0 5.7402344 12.484375 C 5.6976326 12.457656 5.6506254 12.433519 5.609375 12.40625 z M 6.5410156 12.917969 A 8 4 0 0 0 6.6464844 12.970703 C 6.6094634 12.954054 6.5774084 12.934954 6.5410156 12.917969 z M 17.449219 12.923828 C 17.39126 12.95078 17.331021 12.975858 17.271484 13.001953 A 8 4 0 0 0 17.449219 12.923828 z M 7.6660156 13.357422 A 8 4 0 0 0 7.8359375 13.412109 C 7.7779996 13.39442 7.7229752 13.37582 7.6660156 13.357422 z M 16.279297 13.376953 C 16.226545 13.393675 16.170763 13.40771 16.117188 13.423828 A 8 4 0 0 0 16.279297 13.376953 z M 8.9277344 13.6875 A 8 4 0 0 0 9.1953125 13.742188 C 9.1047513 13.72521 9.0167124 13.706054 8.9277344 13.6875 z M 15.023438 13.701172 C 14.983003 13.709439 14.945057 13.718618 14.904297 13.726562 A 8 4 0 0 0 15.023438 13.701172 z M 13.638672 13.910156 C 13.576927 13.916601 13.517332 13.92396 13.455078 13.929688 A 8 4 0 0 0 13.638672 13.910156 z M 10.380859 13.912109 A 8 4 0 0 0 10.607422 13.933594 C 10.531396 13.926904 10.456136 13.919865 10.380859 13.912109 z M 12.111328 13.994141 C 12.073411 13.994406 12.038041 14 12 14 C 11.974639 14 11.951087 13.996212 11.925781 13.996094 A 8 4 0 0 0 12.111328 13.994141 z "
     id="path828" />
  <path
     inkscape:connector-curvature="0"
     style="color:#000000;fill:#b6b6b6;fill-rule:evenodd;fill-opacity:1"
     id="path9"
     d="M 4.03125,10.4063 C 4.245817,14.6329 7.719997,18 12,18 16.280003,18 19.754183,14.6329 19.96875,10.4063 19.55907,12.4233 16.142136,14 12,14 7.857864,14 4.44093,12.4233 4.03125,10.4063" />
  <path
     inkscape:connector-curvature="0"
     style="color:#000000;opacity:1;fill:#ffffff;stroke-width:0.81649661"
     id="path11"
     d="m 20,10.000013 a 8,4 0 1 1 -16,0 8,4 0 1 1 16,0" />
</svg>

<svg xmlns="http://www.w3.org/2000/svg" viewBox="0 0 24 24"><path d="M12.234 6.002A8 4 0 004 10a8 4 0 00.232.957 8 4 0 00.23.383 8 4 0 00.306.369 8 4 0 00.207.195c-.07-.064-.144-.128-.207-.195a3.416 3.416 0 01-.305-.37 2.76 2.76 0 01-.432-.933C4.246 14.633 7.72 18 12 18s7.754-3.367 7.969-7.594c-.083.406-.293.792-.6 1.153a3.91 3.91 0 01-.3.31 8 4 0 00.3-.31A8 4 0 0020 10a8 4 0 00-7.766-3.998zm6.211 6.36c-.06.04-.121.082-.185.122a8 4 0 00.185-.123zm-12.836.044a8 4 0 00.131.078c-.042-.026-.09-.05-.13-.078zm.932.512a8 4 0 00.105.053c-.037-.017-.069-.036-.105-.053zm10.908.006c-.058.027-.118.052-.178.078a8 4 0 00.178-.078zm-9.783.433a8 4 0 00.17.055l-.17-.055zm8.613.02c-.052.017-.108.03-.162.047a8 4 0 00.162-.047zm-7.351.31a8 4 0 00.267.055c-.09-.017-.178-.036-.267-.055zm6.095.014l-.119.026a8 4 0 00.12-.026zm-1.384.21l-.184.019a8 4 0 00.184-.02zm-3.258.001a8 4 0 00.226.022 15.252 15.252 0 01-.226-.022zm1.73.082c-.038 0-.073.006-.111.006-.025 0-.049-.004-.074-.004a8 4 0 00.185-.002z" color="#000" fill-rule="evenodd" stroke="#000" opacity=".6" stroke-width="2" stroke-linejoin="round"/><path d="M4.031 10.406C4.246 14.633 7.72 18 12 18s7.754-3.367 7.969-7.594C19.559 12.423 16.142 14 12 14s-7.56-1.577-7.969-3.594" color="#000" fill="#b6b6b6" fill-rule="evenodd"/><path d="M20 10a8 4 0 11-16 0 8 4 0 1116 0" color="#000" fill="#fff"/></svg>
